FINK
CUT[DURCH FELD UND WALD]
REG[Europa, Mitteleuropa, Deutschland]
KEY[F0519  16  F 2/4]
MEL[-5_  -5_-3_-4_-6_  -5_1_1_
    -5_  -5_-3_-4_-6_  -5_1_1_
    -3_  -2_-5_-7-6-5-4#  -5__0_
    -5_  -4_-3_-2_-4_  -3_-5_-3_
    -5_  -4_-3_-2_-4_  -3_-5_-3_
    -5_  -6_-6_-7_-7_  1___  0__. //] >>
FCT[Studenten - Lied]
